assets/img/img-pages/fran/contract.svg

<svg width="84" height="84" viewBox="0 0 84 84" fill="none" xmlns="http://www.w3.org/2000/svg">
<path fill-rule="evenodd" clip-rule="evenodd" d="M17.743 15.1206H55.7675V54.1285H47.2447H46.2614V55.1118V63.6346H17.743V15.1206ZM48.2281 61.8365L53.9694 56.0952H48.2281V61.8365ZM47.2447 65.6014L57.7343 55.1118V22.9877H66.257V71.5017H28.2325V65.6014H47.2447ZM57.7343 15.1206V21.0209H68.2238V73.4685H26.2657V65.6014H17.743H15.7762V63.6346V15.1206V13.1538H17.743H55.7675H57.7343V15.1206ZM23.6433 24.6267H49.8671V22.6599H23.6433V24.6267ZM49.8671 29.8715H23.6433V27.9047H49.8671V29.8715ZM23.6433 35.1162H49.8671V33.1494H23.6433V35.1162ZM36.7552 40.361H23.6433V38.3942H36.7552V40.361ZM34.1329 50.8505H44.6224V48.8837H34.1329V50.8505ZM44.6224 40.361H39.3776V38.3942H44.6224V40.361ZM29.5437 49.8671C29.5437 50.9533 28.6631 51.8339 27.5769 51.8339C26.4907 51.8339 25.6101 50.9533 25.6101 49.8671C25.6101 48.7809 26.4907 47.9003 27.5769 47.9003C28.6631 47.9003 29.5437 48.7809 29.5437 49.8671ZM31.5105 49.8671C31.5105 52.0395 29.7494 53.8007 27.5769 53.8007C25.4045 53.8007 23.6433 52.0395 23.6433 49.8671C23.6433 47.6946 25.4045 45.9335 27.5769 45.9335C29.7494 45.9335 31.5105 47.6946 31.5105 49.8671Z" fill="#1D3557"/>
</svg>

<svg width="84" height="84" fill="none" xmlns="http://www.w3.org/2000/svg"><path fill-rule="evenodd" clip-rule="evenodd" d="M17.743 15.12h38.025V54.13H46.26v9.506H17.743V15.12Zm30.485 46.717 5.741-5.742h-5.74v5.742Zm-.983 3.764 10.49-10.49V22.989h8.522v48.514H28.232v-5.9h19.013Zm10.49-50.48v5.9h10.489v52.448H26.266V65.6h-10.49V13.154h41.958v1.967Zm-34.092 9.506h26.224V22.66H23.643v1.967Zm26.224 5.245H23.643v-1.967h26.224v1.966Zm-26.224 5.244h26.224V33.15H23.643v1.967Zm13.112 5.245H23.643v-1.967h13.112v1.967Zm-2.622 10.49h10.49v-1.967h-10.49v1.966Zm10.49-10.49h-5.245v-1.967h5.244v1.967Zm-15.08 9.506a1.967 1.967 0 1 1-3.933 0 1.967 1.967 0 0 1 3.934 0Zm1.968 0a3.934 3.934 0 1 1-7.868 0 3.934 3.934 0 0 1 7.867 0Z" fill="#1D3557"/></svg>
